X: 19395
T: Jackie Coleman's
R: reel
M: 4/4
K: Dmajor
F2 AF BFAF|E2 BE dEBE|ABde fedB|AFFF EFDE|
F2 AF BFAF|E2 BE dEBE|ABde fd d2|1 AFFF EFDE:|2 fddc dfag||
fddc dfaf|eA A2 eAfA|eA A2 efge|fddc dfag
fddc dfaf|g2 gf gbag|faeg fd d2|1 fddc dfag:|2 AFFF EFDE||

